X:1
T:Title
%%score { ( 1 3 ) | ( 2 4 ) }
L:1/8
Q:1/4=90
M:3/4
K:D
V:1 treble nm="Grand Piano"
V:3 treble 
V:2 bass 
V:4 bass 
V:1
 [FA]>[FA] [FA][FA] [FA][FA] | [EGA]2 A-[FA] GA | B>B BA GF | [A,CE]4 z2 | %4
 [CEA]>[CEA] [CEA][CEA] [CEA][CEA] | [CEA]2 [B,E^G]2 [A,EA]>[A,EA] | [A,DF][Fd] [Ec]2 [DB]2 | %7
[M:2/4] [A,CA]4 |[M:1/4] z2 |[M:3/4] [Gc]>c dA GF | F2 E2 A,A, | c>c dA GF | F2 E2 z2 | D>D DD FD | %14
 A2 A2 [Ad][Ad] | ee d2 [Ec]2 |[M:2/4] [Fd]4 |] %17
V:2
 [D,D]>[D,D] [D,D][D,D] [D,D][D,D] | C,2 z[K:treble] D EF | %2
 [G,D]>[G,D][K:bass] [G,D][F,A,D] [E,A,C][D,A,D] | z2 z A, CE | A,,>A,, A,,A,, A,,A,, | %5
 E,2 E,2 C,>C, | D,[D,A,] [E,A,]2 [E,^G,]2 |[M:2/4] A,,4 |[M:1/4] A,A, | %9
[M:3/4] z z/[K:treble] G/ F[A,F] [A,E][A,D] | [A,D]2 [A,C]2 z2 | G>G F[A,F] [A,E][A,D] | D2 C2 z2 | %13
 D,>D, D,D, F,D, | A,2 A,2 [F,A,][F,A,] | [G,B,G][G,B,G] [A,F]2[K:bass] [A,,A,]2 | %16
[M:2/4] [D,A,]4 |] %17
V:3
 x6 | z2 .[DF]2 z2 | x6 | x6 | x6 | x6 | x6 |[M:2/4] x4 |[M:1/4] x2 |[M:3/4] x6 | x6 | x6 | x6 | %13
 x6 | x6 | x6 |[M:2/4] x4 |] %17
V:4
 x6 | z2 D,2[K:treble] z2 | x2[K:bass] x4 | A,,4 z2 | x6 | x6 | x6 |[M:2/4] x4 |[M:1/4] x2 | %9
[M:3/4] A,4[K:treble] z2 | x6 | A,4 z2 | A,4 z2 | x6 | x6 | x4[K:bass] x2 |[M:2/4] x4 |] %17

